careers/base/static/css/protocol/img/icons/social/facebook/brand.svg

<svg width="16px" height="16px" viewBox="0 0 16 16" xmlns="http://www.w3.org/2000/svg"><title>icon/social/facebook/brand</title><g id="icon/social/facebook/brand" stroke="none" stroke-width="1" fill="none" fill-rule="evenodd"><path d="M6.45602514,16 L6.45602514,8.70169121 L4,8.70169121 L4,5.85735974 L6.45602514,5.85735974 L6.45602514,3.75977121 C6.45602514,1.32549518 7.94280267,0 10.114324,0 C11.1544681,0 12.0485118,0.0774635455 12.3090068,0.1120644 L12.3090068,2.65600395 L10.8029517,2.65671009 C9.6219327,2.65671009 9.39328461,3.21787946 9.39328461,4.0413798 L9.39328461,5.85735974 L12.2098648,5.85735974 L11.8430957,8.70169121 L9.39328461,8.70169121 L9.39328461,16 L6.45602514,16 Z" id="icon" fill="#395185"></path></g></svg>

<svg width="16" height="16" viewBox="0 0 16 16" xmlns="http://www.w3.org/2000/svg"><path d="M6.456 16V8.702H4V5.857h2.456V3.76C6.456 1.325 7.943 0 10.114 0c1.04 0 1.935.077 2.195.112v2.544h-1.506c-1.181 0-1.41.562-1.41 1.385v1.816h2.817l-.367 2.845h-2.45V16H6.456z" fill="#395185" fill-rule="evenodd"/></svg>
